image_project/search-icon.svg

<svg width="92" height="90" viewBox="0 0 92 90" fill="none" xmlns="http://www.w3.org/2000/svg">
<g clip-path="url(#clip0)">
<path d="M56.2156 43.3151L47.1378 51.9802L8.80341 88.5661C7.79702 89.5289 6.506 90.0103 5.21497 90.0103C3.80196 90.0103 2.38894 89.4367 1.36222 88.2998C-0.660727 86.0669 -0.396422 82.5743 1.93149 80.6692L47.1378 43.8272L52.1189 39.7712L56.2156 43.3151Z" fill="url(#paint0_linear)"/>
<path d="M46.7413 52.4206L37.8058 60.9423L36.9824 52.185L41.872 48.2007L46.7413 52.4206Z" fill="#3A81D6" fill-opacity="0.8"/>
<path d="M91.978 29.9078C91.978 46.4288 78.6815 59.8259 62.2946 59.8259C51.9664 59.8259 42.8682 54.5101 37.5516 46.4391C34.4308 41.7071 32.6111 36.0225 32.6111 29.9078C32.6111 13.3868 45.9077 0 62.2946 0C69.6951 0 76.4552 2.72448 81.6498 7.23114C87.9728 12.7211 91.978 20.8433 91.978 29.9078Z" fill="url(#paint1_linear)"/>
<path d="M62.2946 53.2093C75.0671 53.2093 85.4213 42.7768 85.4213 29.9078C85.4213 17.0387 75.0671 6.60632 62.2946 6.60632C49.5221 6.60632 39.1679 17.0387 39.1679 29.9078C39.1679 42.7768 49.5221 53.2093 62.2946 53.2093Z" fill="white"/>
<path opacity="0.06" d="M91.978 29.9078C91.978 46.4288 78.6815 59.8259 62.2946 59.8259C51.9664 59.8259 42.8682 54.5101 37.5516 46.4391C71.0268 43.6941 79.8505 15.1178 81.66 7.23114C87.9728 12.7211 91.978 20.8433 91.978 29.9078Z" fill="#1A6FB5" fill-opacity="0.5"/>
<path d="M62.2946 29.959C64.9783 29.959 67.1537 27.7672 67.1537 25.0632C67.1537 22.3592 64.9783 20.1673 62.2946 20.1673C59.6109 20.1673 57.4354 22.3592 57.4354 25.0632C57.4354 27.7672 59.6007 29.959 62.2946 29.959ZM62.2946 32.407C59.0518 32.407 52.5763 34.0458 52.5763 37.3028V38.5319C52.5763 39.2079 53.1252 39.761 53.7962 39.761H70.8133C71.4842 39.761 72.0332 39.2079 72.0332 38.5319V37.3028C72.0128 34.056 65.5374 32.407 62.2946 32.407Z" fill="url(#paint2_linear)"/>
</g>
<defs>
<linearGradient id="paint0_linear" x1="5.67475" y1="84.3265" x2="53.9244" y2="40.7922" gradientUnits="userSpaceOnUse">
<stop stop-color="#67C3F3"/>
<stop offset="1" stop-color="#5A98F2"/>
</linearGradient>
<linearGradient id="paint1_linear" x1="50.0173" y1="2.11336" x2="72.7818" y2="52.9053" gradientUnits="userSpaceOnUse">
<stop stop-color="#67C3F3"/>
<stop offset="1" stop-color="#5A98F2"/>
</linearGradient>
<linearGradient id="paint2_linear" x1="55.2686" y1="28.3947" x2="72.9196" y2="36.9391" gradientUnits="userSpaceOnUse">
<stop stop-color="#B0F4FF"/>
<stop offset="0.071077" stop-color="#A6F1FF"/>
<stop offset="0.2937" stop-color="#8BE8FD"/>
<stop offset="0.5209" stop-color="#78E1FD"/>
<stop offset="0.7536" stop-color="#6DDDFC"/>
<stop offset="1" stop-color="#69DCFC"/>
</linearGradient>
<clipPath id="clip0">
<rect width="91.978" height="90" fill="white"/>
</clipPath>
</defs>
</svg>

<svg width="92" height="90" fill="none" xmlns="http://www.w3.org/2000/svg"><g clip-path="url(#clip0)"><path d="M56.216 43.315l-9.078 8.665L8.803 88.566a5.176 5.176 0 01-3.588 1.444 5.176 5.176 0 01-3.853-1.71c-2.023-2.233-1.758-5.726.57-7.63l45.206-36.843 4.98-4.056 4.098 3.544z" fill="url(#paint0_linear)"/><path d="M46.741 52.42l-8.935 8.522-.824-8.757 4.89-3.984 4.87 4.22z" fill="#3A81D6" fill-opacity=".8"/><path d="M91.978 29.908c0 16.52-13.296 29.918-29.683 29.918-10.329 0-19.427-5.316-24.743-13.387a29.93 29.93 0 01-4.94-16.531C32.611 13.387 45.907 0 62.294 0c7.4 0 14.16 2.724 19.355 7.231a29.95 29.95 0 0110.328 22.677z" fill="url(#paint1_linear)"/><path d="M62.295 53.21c12.772 0 23.126-10.433 23.126-23.302 0-12.87-10.354-23.302-23.126-23.302-12.773 0-23.127 10.433-23.127 23.302s10.354 23.301 23.127 23.301z" fill="#fff"/><path opacity=".06" d="M91.978 29.908c0 16.52-13.296 29.918-29.683 29.918-10.329 0-19.427-5.316-24.743-13.387C71.027 43.694 79.85 15.118 81.66 7.231a29.976 29.976 0 0110.318 22.677z" fill="#1A6FB5" fill-opacity=".5"/><path d="M62.295 29.959c2.683 0 4.859-2.192 4.859-4.896 0-2.704-2.176-4.896-4.86-4.896-2.683 0-4.859 2.192-4.859 4.896 0 2.704 2.166 4.896 4.86 4.896zm0 2.448c-3.243 0-9.719 1.639-9.719 4.896v1.229c0 .676.55 1.229 1.22 1.229h17.017c.671 0 1.22-.553 1.22-1.23v-1.228c-.02-3.247-6.496-4.896-9.738-4.896z" fill="url(#paint2_linear)"/></g><defs><linearGradient id="paint0_linear" x1="5.675" y1="84.326" x2="53.924" y2="40.792" gradientUnits="userSpaceOnUse"><stop stop-color="#67C3F3"/><stop offset="1" stop-color="#5A98F2"/></linearGradient><linearGradient id="paint1_linear" x1="50.017" y1="2.113" x2="72.782" y2="52.905" gradientUnits="userSpaceOnUse"><stop stop-color="#67C3F3"/><stop offset="1" stop-color="#5A98F2"/></linearGradient><linearGradient id="paint2_linear" x1="55.269" y1="28.395" x2="72.92" y2="36.939" gradientUnits="userSpaceOnUse"><stop stop-color="#B0F4FF"/><stop offset=".071" stop-color="#A6F1FF"/><stop offset=".294" stop-color="#8BE8FD"/><stop offset=".521" stop-color="#78E1FD"/><stop offset=".754" stop-color="#6DDDFC"/><stop offset="1" stop-color="#69DCFC"/></linearGradient><clipPath id="clip0"><path fill="#fff" d="M0 0h91.978v90H0z"/></clipPath></defs></svg>
